X: 454
T: Bulandı Gözler Bulandı
C: Mahmut Güzelgöz
O: Turkey
F: http://compmusic.upf.edu/node/140
N: muhayyer--turku--senginsemai--bulandi_gozler--urfa
N: makam= muhayyer
N: form= turku
N: usul= senginsemai = 6/4
M: 6/4
L: 1/16
K: C _2/4B ^3/4f  
Q: 1/4=48
%%MIDI tuningsystem comma53
z2fg a4 g2{d'}c'/b/a a8 .a4  | c'd'3 d'3b c'2d'2 c'2c'd' c'2c'2 bc'ba  | 
w:  Bu lan dı  *  *  *  *  *  göz ler   |  bu *  lan  | 
b2c'2 b2b2 c'2c'e' d'4 d'3b c'/d'/bc'2  | \
w:  *  *  *  *  *  *  *  dı    | 
c'2ba a{d'}c'{d'}b2 b2ag/b/ a8-a2z2  | 
w:   | 
g2g2 f2g2 a4 a2a2 a4 g2g2  | ^2/4f2fg e/=f/e/f/ef d6e2 d2cd c2c2  | 
w:  İn *  *  di  der yâ  |   | 
.d4 d4 d4 c2c2 B2cB e2(3dcB  | c/B/c3 c2B2 B2B2 B{c}B2A A6z2  | 
w:  yı  do lan  |  dı    | 
f2g2 a4 g2{d'}c'/b/a a8 .a4  | c'd'3 d'3b c'2d'2 c'2c'd' c'2c'2 bc'ba  | 
w:  Sen de  çok *  *  *  *  *  mal lar   |  ta *  lan  | 
b2c'2 b2b2 c'2c'e' d'4 d'3b c'/d'/bc'2  | \
w:  *  *  *  *  *  *  *  dı    | 
c'2ba a{d'}c'{d'}b2 b2ag/b/ a8-a2z2  | 
w:   | 
g2g2 f2g2 a4 a2a2 a4 g2g2  | ^2/4f2fg e/=f/e/f/ef d6e2 d2cd c2c2  | 
w:  Kal *  *  dı  *  *  *  bül  |   | 
.d4 d4 d4 c2c2 B2cB e2dB  | c2c2 c2BA cBB2 B3A A6z2  | 
w:  bül süz  dağ  |  lar    | 
a4 a2ab gag2 c'2bc' b2ab g2ga  | f2f2 e2ef d6e2 d2cd c/B/c2z  | 
w:  Dağ *  *  *  lar_ *  *  a *  *  man_ *  *  a  |  man_ *  a *  *  man    | 
a4 a2ab gag2 c'2bc' b2ab g2ga  | f2f2 e2ef d6e2 d2cd c/B/c2z  | 
w:  Çöl *  *  *  ler_ *  *  a *  *  man_ *  *  a  |  man_ *  a *  *  man    | 
z40  | d2e2c2d2c3Be/=f/e/f/d2cB{c}B{c}B B2BAA4c2BAA8  | 
w:  |  Gül ler  *  *  *  *  *  *  *  *  *  şim *  *  *  *  *  *  *  *  *  *  *  *  di    | 
|


